X: 1134
T: Dublin Coddle
M: 3/4
L: 1/8
R: varsovienne
K: A Major
cB A2 E2 | cB A2 E2 | cd f2 e2 | A2 G4 | 
BA G2 E2 | BA G2 E2 | ce f2 e2 | B2 A4 |
cB A2 E2 | cB A2 E2 | cd f2 e2 | a2 b4 |
fg a2 a2 | af e2 c2 | ce g2 e2 | G2 A4 ||
cB A2 A2 | ce a2 a2 | bg a2 A2 | a2 g4 | 
B^A B2 B2 | de g2 g2 | gf e2 E2 | G2 c4 |
cB A2 A2 | ce a2 a2 | bg a2 A2 | g2 f4 |
fg a2 a2 | af e2 e2 | ce g2 e2 | G2 A4 ||
